packages/astro-components-stencil/src/icons/format-paint.svg

<svg xmlns="http://www.w3.org/2000/svg" viewBox="0 0 24 24"><g xmlns="http://www.w3.org/2000/svg" id="format-paint" fill-rule="nonzero">
            <path d="M18 4V3c0-.55-.45-1-1-1H5c-.55 0-1 .45-1 1v4c0 .55.45 1 1 1h12c.55 0 1-.45 1-1V6h1v4h-9c-.55 0-1 .45-1 1v10c0 .55.45 1 1 1h2c.55 0 1-.45 1-1v-9h7c.55 0 1-.45 1-1V5c0-.55-.45-1-1-1h-2z"/>
        </g></svg>

<svg width="24" height="24" viewBox="0 0 24 24" fill="none" xmlns="http://www.w3.org/2000/svg">
<path d="M18 4V3C18 2.45 17.55 2 17 2H5C4.45 2 4 2.45 4 3V7C4 7.55 4.45 8 5 8H17C17.55 8 18 7.55 18 7V6H19V10H10C9.45 10 9 10.45 9 11V21C9 21.55 9.45 22 10 22H12C12.55 22 13 21.55 13 21V12H20C20.55 12 21 11.55 21 11V5C21 4.45 20.55 4 20 4H18Z" fill="black"/>
</svg>
